public/img/assets/icons/uvindexSun/uv0.svg

<svg width="25" height="24" viewBox="0 0 25 24" fill="none" xmlns="http://www.w3.org/2000/svg">
<path d="M12.9594 1.71428C13.1299 1.71428 13.2934 1.78201 13.414 1.90257C13.5345 2.02313 13.6023 2.18664 13.6023 2.35714V3.63942C13.6023 3.80992 13.5345 3.97343 13.414 4.09399C13.2934 4.21455 13.1299 4.28228 12.9594 4.28228C12.7889 4.28228 12.6254 4.21455 12.5049 4.09399C12.3843 3.97343 12.3166 3.80992 12.3166 3.63942V2.35714C12.3166 2.18664 12.3843 2.02313 12.5049 1.90257C12.6254 1.78201 12.7889 1.71428 12.9594 1.71428ZM22.6023 12.6429C22.7728 12.6429 22.9363 12.5751 23.0568 12.4546C23.1774 12.334 23.2451 12.1705 23.2451 12C23.2451 11.8295 23.1774 11.666 23.0568 11.5454C22.9363 11.4249 22.7728 11.3571 22.6023 11.3571H21.3191C21.1486 11.3571 20.9851 11.4249 20.8646 11.5454C20.744 11.666 20.6763 11.8295 20.6763 12C20.6763 12.1705 20.744 12.334 20.8646 12.4546C20.9851 12.5751 21.1486 12.6429 21.3191 12.6429H22.6023ZM12.9594 19.7177C13.1299 19.7177 13.2934 19.7854 13.414 19.906C13.5345 20.0266 13.6023 20.1901 13.6023 20.3606V21.6429C13.6023 21.8133 13.5345 21.9769 13.414 22.0974C13.2934 22.218 13.1299 22.2857 12.9594 22.2857C12.7889 22.2857 12.6254 22.218 12.5049 22.0974C12.3843 21.9769 12.3166 21.8133 12.3166 21.6429V20.3606C12.3166 20.1901 12.3843 20.0266 12.5049 19.906C12.6254 19.7854 12.7889 19.7177 12.9594 19.7177ZM4.60228 12.6429C4.77277 12.6429 4.93629 12.5751 5.05685 12.4546C5.17741 12.334 5.24513 12.1705 5.24513 12C5.24513 11.8295 5.17741 11.666 5.05685 11.5454C4.93629 11.4249 4.77277 11.3571 4.60228 11.3571H3.31656C3.14607 11.3571 2.98255 11.4249 2.86199 11.5454C2.74144 11.666 2.67371 11.8295 2.67371 12C2.67371 12.1705 2.74144 12.334 2.86199 12.4546C2.98255 12.5751 3.14607 12.6429 3.31656 12.6429H4.60228ZM5.43285 4.47342C5.55339 4.35304 5.71678 4.28542 5.88713 4.28542C6.05749 4.28542 6.22088 4.35304 6.34142 4.47342L7.62713 5.75914C7.74069 5.881 7.80251 6.04218 7.79957 6.20873C7.79663 6.37527 7.72916 6.53417 7.61138 6.65196C7.4936 6.76974 7.3347 6.83721 7.16815 6.84014C7.00161 6.84308 6.84043 6.78126 6.71856 6.66771L5.43285 5.38199C5.31246 5.26146 5.24484 5.09807 5.24484 4.92771C5.24484 4.75735 5.31246 4.59396 5.43285 4.47342ZM6.34142 19.5249C6.21956 19.6384 6.05837 19.7002 5.89183 19.6973C5.72529 19.6943 5.56638 19.6269 5.4486 19.5091C5.33082 19.3913 5.26335 19.2324 5.26041 19.0659C5.25747 18.8993 5.31929 18.7381 5.43285 18.6163L6.71856 17.3306C6.84043 17.217 7.00161 17.1552 7.16815 17.1581C7.3347 17.1611 7.4936 17.2285 7.61138 17.3463C7.72916 17.4641 7.79663 17.623 7.79957 17.7895C7.80251 17.9561 7.74069 18.1173 7.62713 18.2391L6.34142 19.5249ZM20.4843 4.47342C20.3637 4.35304 20.2004 4.28542 20.03 4.28542C19.8596 4.28542 19.6962 4.35304 19.5757 4.47342L18.29 5.75914C18.1764 5.881 18.1146 6.04218 18.1176 6.20873C18.1205 6.37527 18.188 6.53417 18.3057 6.65196C18.4235 6.76974 18.5824 6.83721 18.749 6.84014C18.9155 6.84308 19.0767 6.78126 19.1986 6.66771L20.4843 5.38199C20.6047 5.26146 20.6723 5.09807 20.6723 4.92771C20.6723 4.75735 20.6047 4.59396 20.4843 4.47342ZM19.5766 19.5257C19.6354 19.5889 19.7064 19.6395 19.7852 19.6747C19.8641 19.7098 19.9492 19.7287 20.0355 19.7302C20.1219 19.7317 20.2076 19.7159 20.2876 19.6835C20.3677 19.6512 20.4404 19.6031 20.5015 19.542C20.5625 19.481 20.6106 19.4083 20.643 19.3282C20.6753 19.2482 20.6912 19.1624 20.6896 19.0761C20.6881 18.9898 20.6692 18.9047 20.6341 18.8258C20.599 18.747 20.5483 18.676 20.4851 18.6171L19.1994 17.3314C19.1406 17.2683 19.0696 17.2176 18.9907 17.1825C18.9119 17.1473 18.8268 17.1284 18.7404 17.1269C18.6541 17.1254 18.5684 17.1413 18.4883 17.1736C18.4083 17.2059 18.3356 17.2541 18.2745 17.3151C18.2135 17.3761 18.1654 17.4489 18.133 17.5289C18.1007 17.609 18.0848 17.6947 18.0863 17.781C18.0879 17.8673 18.1068 17.9525 18.1419 18.0313C18.177 18.1102 18.2277 18.1811 18.2908 18.24L19.5766 19.5257Z" fill="#3FD5FE"/>
<circle cx="12.9595" cy="12" r="4.5" stroke="#3FD5FE"/>
</svg>

<svg xmlns="http://www.w3.org/2000/svg" fill="none" viewBox="0 0 25 24"><path d="M12.96 1.714a.643.643 0 0 1 .642.643V3.64a.643.643 0 0 1-1.285 0V2.356a.643.643 0 0 1 .642-.643Zm9.642 10.929a.643.643 0 0 0 0-1.286H21.32a.643.643 0 0 0 0 1.286h1.283Zm-9.643 7.075a.643.643 0 0 1 .643.643v1.282a.643.643 0 0 1-1.285 0V20.36a.643.643 0 0 1 .642-.643Zm-8.357-7.075a.643.643 0 0 0 0-1.286H3.317a.643.643 0 0 0 0 1.286h1.285Zm.83-8.17a.643.643 0 0 1 .91 0L7.626 5.76a.643.643 0 0 1-.908.909L5.433 5.382a.643.643 0 0 1 0-.909Zm.91 15.052a.643.643 0 0 1-.91-.909l1.287-1.285a.643.643 0 0 1 .908.908l-1.286 1.286ZM20.483 4.473a.643.643 0 0 0-.908 0L18.29 5.76a.642.642 0 0 0 .909.909l1.285-1.286a.643.643 0 0 0 0-.91Zm-.907 15.053a.643.643 0 1 0 .908-.909L19.2 17.331a.642.642 0 1 0-.908.909l1.286 1.286Z" fill="#3FD5FE"/><circle cx="12.96" cy="12" r="4.5" stroke="#3FD5FE"/></svg>
